X:24
T:Prime of Life  
O:No 24 Page 9 William Clarke of Feltwell   MS 1858
N:Last 4 notes in bar 11 given as quavers in MS
I:abc2nwc
M:2/4
L:1/16
K:G
}dedc B2B2|gddB G2B2|AGAB cBce|dedB G4:|
|:f2g2f2g2|f2g2a2b2|c'2b2a2g2|fdef g2g2|
f2g2f2g2|f2g2a2b2|c'bab"^*"abag|fdef g4:|

